X:1092
T:Sheepskins and Beeswax
R:reel
O:Quebec, Canada
Z:id:hn-reel-1092
M:C|
L:1/8
K:Ador
EA~A2 BAGB | AGAa gfef | g2fd efed | Beed BAAG |
EA~A2 BAGB | AGAa gfef | g2fd efed |1 Beed BAAG :|2 Beed BAAg ||
|: a3g aega | bagf edef | g2fd efed | Beed BAAg |
a3g aega | bagf edef | g2fd efed |1 Beed BAAg :|2 Beed BAAG ||
W:Sheepskin and beeswax,
W:It makes a mighty plaster,
W:The more you try to get it off,
W:The more it stick to faster.

